X:1
T:[ID 7-185]
T:[ID 7-185]
T:Bezeichnung standardisiert: Menuett Menuet: [mit Trio]
T:Urheber unbekannt Datum in der hier transkribierten schriftlichen Quelle: 1776 - 1791
C:Urheber unbekannt
C:Datum in der hier transkribierten schriftlichen Quelle: 1776 - 1791
L:1/8
M:3/4
K:D
V:1 treble 
V:1
 a2 | .d'2 .a2 .f2 | .a2 .f2 .d2 | e2 efga |{g} f4 a2 | .e'2 .a2 .f2 | .a2 .f2 .d2 | %7
 e3 f a/g/f/e/ | d3 :: ag | f2 f2 fa |{a} g4 gf | e2 e2 eg |{g} f4 a2 | .d'2 .a2 .f2 | %15
 .a2 .f2 .d2 | e3 f a/g/f/e/ | d3 :|[M:3/4]"^Trio" !fermata!A2 | dcdefd | g4 gf |{f} e2 edcd | %22
{^d} e4 A2 | dcdefd | g4 gf |{f} e2 edec | d3 :: a2 | d'c'bagf |{f} e4 ef | gfedcd |{^d} e4 A2 | %32
 dcdefd | g4 gf |{f} e2 edec | d3 :| %36

